X:1196
T:A Rainy Day
M:C|
L:1/8
R:Reel
B:O'Neill's 1196
N:Collected by McFadden
Z:Transcribed by Trish O'Neil
K:A
EAAGA2Ac|BcdB cBAc|BGGAG2GA|3Bcd ef gdBG|
EAAB AGAB|cBAB cdef|gbaf gedB|GBdB cAA2||
eabag  agag|edef gabg|egagfg2ga|bgaf gedf|
eabag eabag|edef gaba|3gfe dB GBaf|gedB cAA2||
